resources/haticons/SVG/open_with.svg

<!-- Generated by IcoMoon.io -->
<svg version="1.1" xmlns="http://www.w3.org/2000/svg" width="24" height="24" viewBox="0 0 24 24">
<title>open_with</title>
<path d="M14.016 15v3h3l-5.016 5.016-5.016-5.016h3v-3h4.031zM23.016 12l-5.016 5.016v-3h-3v-4.031h3v-3zM9 9.984v4.031h-3v3l-5.016-5.016 5.016-5.016v3h3zM9.984 9v-3h-3l5.016-5.016 5.016 5.016h-3v3h-4.031z"></path>
</svg>

<svg xmlns="http://www.w3.org/2000/svg" width="24" height="24"><path d="M14.016 15v3h3L12 23.016 6.984 18h3v-3h4.031zm9-3L18 17.016v-3h-3V9.985h3v-3zM9 9.984v4.031H6v3L.984 11.999 6 6.983v3h3zM9.984 9V6h-3L12 .984 17.016 6h-3v3H9.985z"/></svg>
